symbols/web/gpp_maybe/materialsymbolsoutlined/gpp_maybe_wght300gradN25_40px.svg

<svg xmlns="http://www.w3.org/2000/svg" height="40" width="40"><path d="M19 20.625h2v-8.083h-2Zm1 5q.542 0 .854-.333.313-.334.313-.834 0-.541-.313-.875-.312-.333-.854-.333t-.854.333q-.313.334-.313.875 0 .5.313.834.312.333.854.333Zm0 9.958q-5.333-1.5-8.833-6.375t-3.5-10.833V9.042L20 4.417l12.333 4.625v9.333q0 5.958-3.5 10.833T20 35.583Zm0-15.333Zm0 13.25q4.5-1.5 7.417-5.729 2.916-4.229 2.916-9.396v-7.958L20 6.542 9.667 10.417v7.958q0 5.167 2.916 9.396Q15.5 32 20 33.5Z"/></svg>

<svg xmlns="http://www.w3.org/2000/svg" height="40" width="40"><path d="M19 20.625H21V12.542H19ZM20 25.625Q20.542 25.625 20.854 25.292Q21.167 24.958 21.167 24.458Q21.167 23.917 20.854 23.583Q20.542 23.25 20 23.25Q19.458 23.25 19.146 23.583Q18.833 23.917 18.833 24.458Q18.833 24.958 19.146 25.292Q19.458 25.625 20 25.625ZM20 35.583Q14.667 34.083 11.167 29.208Q7.667 24.333 7.667 18.375V9.042L20 4.417L32.333 9.042V18.375Q32.333 24.333 28.833 29.208Q25.333 34.083 20 35.583ZM20 20.25Q20 20.25 20 20.25Q20 20.25 20 20.25Q20 20.25 20 20.25Q20 20.25 20 20.25ZM20 33.5Q24.5 32 27.417 27.771Q30.333 23.542 30.333 18.375V10.417L20 6.542L9.667 10.417V18.375Q9.667 23.542 12.583 27.771Q15.5 32 20 33.5Z"/></svg>
